src/assets/svg/icons/fa/nuevos/classic/thin/bars-sort classic thin.svg

<svg xmlns="http://www.w3.org/2000/svg" viewBox="0 0 448 512"><path d="M0 88C0 83.58 3.582 80 8 80H440C444.4 80 448 83.58 448 88C448 92.42 444.4 96 440 96H8C3.582 96 0 92.42 0 88zM0 248C0 243.6 3.582 240 8 240H312C316.4 240 320 243.6 320 248C320 252.4 316.4 256 312 256H8C3.582 256 0 252.4 0 248zM184 416H8C3.582 416 0 412.4 0 408C0 403.6 3.582 400 8 400H184C188.4 400 192 403.6 192 408C192 412.4 188.4 416 184 416z"/></svg>

<svg xmlns="http://www.w3.org/2000/svg" viewBox="0 0 448 512"><!--! Font Awesome Pro 6.4.0 by @fontawesome - https://fontawesome.com License - https://fontawesome.com/license (Commercial License) Copyright 2023 Fonticons, Inc. --><path d="M0 88c0-4.4 3.6-8 8-8H440c4.4 0 8 3.6 8 8s-3.6 8-8 8H8c-4.4 0-8-3.6-8-8zM0 248c0-4.4 3.6-8 8-8H312c4.4 0 8 3.6 8 8s-3.6 8-8 8H8c-4.4 0-8-3.6-8-8zM192 408c0 4.4-3.6 8-8 8H8c-4.4 0-8-3.6-8-8s3.6-8 8-8H184c4.4 0 8 3.6 8 8z"/></svg>
